X: 01017
T: REEL CANADIEN-FRAN\,CAIS
C: Bob McQuillen Oct '75
B: Bob's Note Book 1 #17
R: reel
Z: 2019 John Chambers <jc:trillian.mit.edu>
M: C
L: 1/8
K: D
de \
| faab afgf | edef dBAG | FAdf afgf | e2A2 A2de |
| faab afgf | edef dAde | fagf egfe | d2f2 d2 :|
|: dB \
| AFdB AFAB | ABde fddB | ABde fdcd | edef e2dB |
| AFdB AFAB | ABde fdcd | efga fdec | d2f2 d2 :|
%%begintext align
%% Pour tous mes
%% amis au Nord
%%endtext

%%sep 1 1 500

%%sep 1 1 500

